img/ui/icons/document.svg.svg

<svg width="25" height="24" viewBox="0 0 25 24" fill="none" xmlns="http://www.w3.org/2000/svg">
<path d="M14.4385 2.8125H7.08848C6.60114 2.8125 6.13377 3.00609 5.78917 3.35069C5.44457 3.69529 5.25098 4.16266 5.25098 4.65V19.35C5.25098 19.8373 5.44457 20.3047 5.78917 20.6493C6.13377 20.9939 6.60114 21.1875 7.08848 21.1875H18.1135C18.6008 21.1875 19.0682 20.9939 19.4128 20.6493C19.7574 20.3047 19.951 19.8373 19.951 19.35V8.325L14.4385 2.8125Z" stroke="#0F0F0F" stroke-width="1.5" stroke-linecap="round" stroke-linejoin="round"/>
<path d="M16.2758 16.5938H8.92578" stroke="#0F0F0F" stroke-width="1.5" stroke-linecap="round" stroke-linejoin="round"/>
<path d="M16.2758 12.9187H8.92578" stroke="#0F0F0F" stroke-width="1.5" stroke-linecap="round" stroke-linejoin="round"/>
<path d="M10.7633 9.24377H9.84453H8.92578" stroke="#0F0F0F" stroke-width="1.5" stroke-linecap="round" stroke-linejoin="round"/>
<path d="M14.4385 2.8125V8.325H19.951" stroke="#0F0F0F" stroke-width="1.5" stroke-linecap="round" stroke-linejoin="round"/>
</svg>

<svg width="25" height="24" fill="none" xmlns="http://www.w3.org/2000/svg"><path d="M14.438 2.813h-7.35A1.837 1.837 0 0 0 5.251 4.65v14.7a1.838 1.838 0 0 0 1.837 1.837h11.025a1.838 1.838 0 0 0 1.838-1.837V8.325l-5.513-5.512ZM16.276 16.594h-7.35M16.276 12.919h-7.35M10.763 9.244H8.925" stroke="#0F0F0F" stroke-width="1.5" stroke-linecap="round" stroke-linejoin="round"/><path d="M14.438 2.813v5.512h5.513" stroke="#0F0F0F" stroke-width="1.5" stroke-linecap="round" stroke-linejoin="round"/></svg>
